X: 498
T: A. F. Irving
R: strathspey
M: 4/4
K: Aminor
B,|A,>CB,>D C>ED>F|E/F/G/F/ E/D/C/B,/ D/C/B,/A,/ G,/A,/B,/G,/|A,>CB,>D C>ED>B|c>AB<G {G}[A2A2] A:|
[K: Ador] E|A>Bc>d e<cg>e|d>Bg>e d/c/B/A/ G>B|A>Bc>d e<cg>f|e<Ec>B {E}[A2A2] A>E|
A>Bc>d e>cg>e|d>Bg>e d/c/B/A/ G>B|A/B/c/A/ B/c/d/B/ c<ed>c|B<Ec>B {E}[A2A2] A||

